X: 119
T: Devil's Dream
M: C|
B: NEFR #119
N: The NEFR version has the pickup notes at the ends of the phrases.
Z: Mary Lou Knack?
R: reel
K: A
e2 \
| "A"ag ae ag ae | ag ae fe dc | "Bm"df Bf df Bf | df Bf "E"ag fe |
| "A"ag ae ag ae | ag ae fe dc | "D"df ed "A"cA BA | "E"EA AG "A"A2 :|
|: e2 \
| "A"ce Ae ce Ae | ce Ae fe dc | "Bm"df Bf df Bf | dB df "E"ag fe |
| "A"ce Ae ce Ae | cA ce fe dc | "D"df ed "A"cA BA | "E"EA AG "A"A2 :|
